X: 23451
T: Let Nature Be Your Teacher
R: barndance
M: 4/4
K: Gmajor
|:G2 DB, DEGA|Bdef gedB|e/g/edB eddB|ABAG EDDE|
G2 DB, DEGA|Bdef gedB|e2 dB eddB|1 GEDE G2 DE:|2 GEDE G2 GB||
|:d2 Bd bg g2|abag eddB|d/d/dBd bg g2|agef g2 gB|
dGBd bg g2|abag edde|gdeg dBB/B/B|1 AGEF G2 BB:|2 AGEF G2 DE||

